X: 66
T: Konvulsionslåten
T: Vargtimmen
C: Anders Norudde
M: 2/4
L: 1/16
K: Gdor
|: "Gm"GABG "Dm"A2A2|"Gm"GABG "Dm"A2A2| "Gm"GABc d2cB | "Dm"ABA2 "Gm"G4 :|
|: "Bb"fdfd f2de-|"C"ecec e2c2| "Dm"fdfg- "C"gfe2|  "Gm"defg- gggg |
"Gm"gfed- d2Bf-|"F"fedc- c2A2| "Gm"GABc d2cB | "Dm"ABA2 "Gm"G4 :|

